Dominus_Dark_Funeral/scalable/apps/spotify-client.svg

<?xml version="1.0" encoding="UTF-8" standalone="no"?><svg xmlns:dc="http://purl.org/dc/elements/1.1/" xmlns:cc="http://creativecommons.org/ns#" xmlns:rdf="http://www.w3.org/1999/02/22-rdf-syntax-ns#" xmlns="http://www.w3.org/2000/svg" xmlns:xlink="http://www.w3.org/1999/xlink" width="48" height="48" viewBox="0 0 12.7 12.7"><metadata><rdf:RDF><cc:Work><dc:format>image/svg+xml</dc:format><dc:type rdf:resource="http://purl.org/dc/dcmitype/StillImage"/><dc:title/></cc:Work></rdf:RDF></metadata><defs><linearGradient id="a"><stop offset="0" stop-color="#447821"/><stop offset=".38" stop-color="#8dd35f"/><stop offset="1" stop-color="#c6e9af"/></linearGradient><linearGradient xlink:href="#a" id="b" x1="1.05" y1="-3.01" x2="10.67" y2="15.82" gradientUnits="userSpaceOnUse"/></defs><path d="M6.35.1C4.81.1 3.57.38 2.66.96A3.67 3.67 0 0 0 1 4.22c0 1.91 1.54 4.47 2.01 5.2.54.85 1.13 1.61 1.65 2.16.68.7 1.21 1.03 1.69 1.03s1.01-.33 1.69-1.03a15.2 15.2 0 0 0 1.65-2.15c.47-.74 2-3.3 2-5.21 0-1.42-.57-2.54-1.65-3.25A6.75 6.75 0 0 0 6.35.1z" fill="url(#b)"/><path d="M1.04 3.9c0 .1-.04.2-.04.32 0 1.91 1.54 4.47 2.01 5.2.54.85 1.13 1.61 1.65 2.16.68.7 1.21 1.03 1.69 1.03s1.01-.33 1.69-1.03a15.2 15.2 0 0 0 1.65-2.15c.47-.74 2-3.3 2-5.21 0-.11-.02-.21-.03-.32a5.5 5.5 0 0 1-.21 1.3c-.15.53-.36 1.05-.58 1.53-.44.97-.95 1.8-1.18 2.17a15.2 15.2 0 0 1-1.65 2.15 4.9 4.9 0 0 1-.92.78c-.28.17-.53.25-.77.25s-.5-.08-.77-.25a4.76 4.76 0 0 1-.92-.78A14.41 14.41 0 0 1 3.01 8.9a19.2 19.2 0 0 1-1.18-2.17c-.22-.48-.43-1-.58-1.52a5.66 5.66 0 0 1-.21-1.31z" opacity=".4"/><path d="M5.64 3.05a9 9 0 0 1 1.87.2c.5.1.95.26 1.37.46.25.12.35.19.4.28.03.08.03.23 0 .3a.4.4 0 0 1-.43.23 5.93 5.93 0 0 0-2.34-.68 6.9 6.9 0 0 0-2.47.14c-.24.06-.31.06-.42 0a.35.35 0 0 1-.21-.33c0-.12.04-.2.13-.28.07-.06.1-.07.36-.13.51-.13 1.12-.2 1.74-.2zM5.5 4.52a17.8 17.8 0 0 1 1 .04c.71.1 1.32.3 1.87.61.34.19.4.26.44.43.03.2-.14.4-.33.4a.8.8 0 0 1-.2-.1 4.67 4.67 0 0 0-2.65-.68c-.48.01-.74.04-1.13.15l-.3.07c-.07 0-.2-.08-.24-.15a.35.35 0 0 1 .13-.51 4.82 4.82 0 0 1 1.41-.26zM5.67 6a11.4 11.4 0 0 1 .8.03c.57.11 1.06.3 1.5.62.27.18.32.25.35.42.02.2-.11.4-.27.4a.58.58 0 0 1-.16-.1 3.26 3.26 0 0 0-3.02-.52l-.24.06c-.06 0-.16-.07-.2-.14-.08-.18-.03-.43.11-.52A3.22 3.22 0 0 1 5.67 6z" fill="#dee3db"/><path d="M5.64 2.8c.62 0 1.27.07 1.86.2.51.1.96.26 1.38.46.25.12.34.2.39.3.04.06.04.21 0 .3a.4.4 0 0 1-.43.21c-.03 0-.17-.07-.32-.14A5.93 5.93 0 0 0 6.5 3.6a6.9 6.9 0 0 0-2.47.14c-.24.06-.3.06-.42 0a.35.35 0 0 1-.2-.32c0-.13.04-.2.13-.28.07-.07.1-.07.36-.14.51-.13 1.11-.2 1.74-.2zM5.5 4.27a17.8 17.8 0 0 1 1 .04c.71.11 1.32.3 1.87.62.33.18.4.25.43.42.04.2-.13.4-.32.4a.8.8 0 0 1-.21-.1 4.67 4.67 0 0 0-2.64-.68c-.48.01-.74.05-1.14.15l-.29.07a.35.35 0 0 1-.24-.14.36.36 0 0 1 .13-.52 4.82 4.82 0 0 1 1.4-.25zm.17 1.48a11.4 11.4 0 0 1 .8.04c.57.1 1.06.3 1.5.6.26.2.32.26.34.43.03.2-.1.4-.26.4a.58.58 0 0 1-.16-.1 3.26 3.26 0 0 0-3.02-.52l-.24.07c-.06 0-.16-.08-.2-.15-.08-.18-.03-.43.11-.52a3.22 3.22 0 0 1 1.13-.25z" fill="#1a1a1a"/></svg>

<?xml version="1.0" encoding="UTF-8" standalone="no"?>
<svg
   xmlns:dc="http://purl.org/dc/elements/1.1/"
   xmlns:cc="http://creativecommons.org/ns#"
   xmlns:rdf="http://www.w3.org/1999/02/22-rdf-syntax-ns#"
   xmlns:svg="http://www.w3.org/2000/svg"
   xmlns="http://www.w3.org/2000/svg"
   xmlns:xlink="http://www.w3.org/1999/xlink"
   xmlns:sodipodi="http://sodipodi.sourceforge.net/DTD/sodipodi-0.dtd"
   xmlns:inkscape="http://www.inkscape.org/namespaces/inkscape"
   width="48"
   height="48"
   viewBox="0 0 12.7 12.7"
   version="1.1"
   id="svg22"
   sodipodi:docname="spotify-client.svg"
   inkscape:version="0.92.4 (5da689c313, 2019-01-14)">
  <sodipodi:namedview
     pagecolor="#ffffff"
     bordercolor="#666666"
     borderopacity="1"
     objecttolerance="10"
     gridtolerance="10"
     guidetolerance="10"
     inkscape:pageopacity="0"
     inkscape:pageshadow="2"
     inkscape:window-width="1112"
     inkscape:window-height="480"
     id="namedview24"
     showgrid="false"
     inkscape:zoom="4.9166667"
     inkscape:cx="2.1355932"
     inkscape:cy="24"
     inkscape:window-x="0"
     inkscape:window-y="25"
     inkscape:window-maximized="0"
     inkscape:current-layer="svg22" />
  <metadata
     id="metadata2">
    <rdf:RDF>
      <cc:Work>
        <dc:format>image/svg+xml</dc:format>
        <dc:type
           rdf:resource="http://purl.org/dc/dcmitype/StillImage" />
        <dc:title></dc:title>
      </cc:Work>
    </rdf:RDF>
  </metadata>
  <defs
     id="defs12">
    <linearGradient
       id="a">
      <stop
         offset="0"
         stop-color="#447821"
         id="stop4" />
      <stop
         offset=".38"
         stop-color="#8dd35f"
         id="stop6" />
      <stop
         offset="1"
         stop-color="#c6e9af"
         id="stop8" />
    </linearGradient>
    <linearGradient
       xlink:href="#a"
       id="b"
       x1="1.05"
       y1="-3.01"
       x2="10.67"
       y2="15.82"
       gradientUnits="userSpaceOnUse" />
  </defs>
  <path
     d="M 6.35,0.1 C 4.81,0.1 3.57,0.38 2.66,0.96 A 3.67,3.67 0 0 0 1,4.22 c 0,1.91 1.54,4.47 2.01,5.2 0.54,0.85 1.13,1.61 1.65,2.16 0.68,0.7 1.21,1.03 1.69,1.03 0.48,0 1.01,-0.33 1.69,-1.03 A 15.2,15.2 0 0 0 9.69,9.43 c 0.47,-0.74 2,-3.3 2,-5.21 0,-1.42 -0.57,-2.54 -1.65,-3.25 A 6.75,6.75 0 0 0 6.35,0.1 Z"
     id="path14"
     style="fill:url(#b)"
     inkscape:connector-curvature="0" />
  <path
     d="M 1.04,3.9 C 1.04,4 1,4.1 1,4.22 c 0,1.91 1.54,4.47 2.01,5.2 0.54,0.85 1.13,1.61 1.65,2.16 0.68,0.7 1.21,1.03 1.69,1.03 0.48,0 1.01,-0.33 1.69,-1.03 A 15.2,15.2 0 0 0 9.69,9.43 c 0.47,-0.74 2,-3.3 2,-5.21 0,-0.11 -0.02,-0.21 -0.03,-0.32 A 5.5,5.5 0 0 1 11.45,5.2 C 11.3,5.73 11.09,6.25 10.87,6.73 10.43,7.7 9.92,8.53 9.69,8.9 A 15.2,15.2 0 0 1 8.04,11.05 4.9,4.9 0 0 1 7.12,11.83 C 6.84,12 6.59,12.08 6.35,12.08 6.11,12.08 5.85,12 5.58,11.83 A 4.76,4.76 0 0 1 4.66,11.05 14.41,14.41 0 0 1 3.01,8.9 19.2,19.2 0 0 1 1.83,6.73 C 1.61,6.25 1.4,5.73 1.25,5.21 A 5.66,5.66 0 0 1 1.04,3.9 Z"
     id="path16"
     inkscape:connector-curvature="0"
     style="opacity:0.4" />
  <path
     d="m 5.64,3.05 a 9,9 0 0 1 1.87,0.2 c 0.5,0.1 0.95,0.26 1.37,0.46 0.25,0.12 0.35,0.19 0.4,0.28 0.03,0.08 0.03,0.23 0,0.3 A 0.4,0.4 0 0 1 8.85,4.52 5.93,5.93 0 0 0 6.51,3.84 6.9,6.9 0 0 0 4.04,3.98 C 3.8,4.04 3.73,4.04 3.62,3.98 A 0.35,0.35 0 0 1 3.41,3.65 C 3.41,3.53 3.45,3.45 3.54,3.37 3.61,3.31 3.64,3.3 3.9,3.24 4.41,3.11 5.02,3.04 5.64,3.04 Z M 5.5,4.52 a 17.8,17.8 0 0 1 1,0.04 C 7.21,4.66 7.82,4.86 8.37,5.17 8.71,5.36 8.77,5.43 8.81,5.6 8.84,5.8 8.67,6 8.48,6 A 0.8,0.8 0 0 1 8.28,5.9 4.67,4.67 0 0 0 5.63,5.22 C 5.15,5.23 4.89,5.26 4.5,5.37 L 4.2,5.44 C 4.13,5.44 4,5.36 3.96,5.29 A 0.35,0.35 0 0 1 4.09,4.78 4.82,4.82 0 0 1 5.5,4.52 Z M 5.67,6 a 11.4,11.4 0 0 1 0.8,0.03 c 0.57,0.11 1.06,0.3 1.5,0.62 0.27,0.18 0.32,0.25 0.35,0.42 0.02,0.2 -0.11,0.4 -0.27,0.4 A 0.58,0.58 0 0 1 7.89,7.37 3.26,3.26 0 0 0 4.87,6.85 L 4.63,6.91 C 4.57,6.91 4.47,6.84 4.43,6.77 4.35,6.59 4.4,6.34 4.54,6.25 A 3.22,3.22 0 0 1 5.67,6 Z"
     id="path18"
     inkscape:connector-curvature="0"
     style="fill:#dee3db" />
  <path
     d="m 5.64,2.8 c 0.62,0 1.27,0.07 1.86,0.2 0.51,0.1 0.96,0.26 1.38,0.46 0.25,0.12 0.34,0.2 0.39,0.3 0.04,0.06 0.04,0.21 0,0.3 A 0.4,0.4 0 0 1 8.84,4.27 C 8.81,4.27 8.67,4.2 8.52,4.13 A 5.93,5.93 0 0 0 6.5,3.6 6.9,6.9 0 0 0 4.03,3.74 C 3.79,3.8 3.73,3.8 3.61,3.74 A 0.35,0.35 0 0 1 3.41,3.42 C 3.41,3.29 3.45,3.22 3.54,3.14 3.61,3.07 3.64,3.07 3.9,3 4.41,2.87 5.01,2.8 5.64,2.8 Z M 5.5,4.27 a 17.8,17.8 0 0 1 1,0.04 c 0.71,0.11 1.32,0.3 1.87,0.62 0.33,0.18 0.4,0.25 0.43,0.42 0.04,0.2 -0.13,0.4 -0.32,0.4 A 0.8,0.8 0 0 1 8.27,5.65 4.67,4.67 0 0 0 5.63,4.97 C 5.15,4.98 4.89,5.02 4.49,5.12 L 4.2,5.19 A 0.35,0.35 0 0 1 3.96,5.05 0.36,0.36 0 0 1 4.09,4.53 4.82,4.82 0 0 1 5.49,4.28 Z m 0.17,1.48 a 11.4,11.4 0 0 1 0.8,0.04 c 0.57,0.1 1.06,0.3 1.5,0.6 0.26,0.2 0.32,0.26 0.34,0.43 0.03,0.2 -0.1,0.4 -0.26,0.4 A 0.58,0.58 0 0 1 7.89,7.12 3.26,3.26 0 0 0 4.87,6.6 L 4.63,6.67 C 4.57,6.67 4.47,6.59 4.43,6.52 4.35,6.34 4.4,6.09 4.54,6 A 3.22,3.22 0 0 1 5.67,5.75 Z"
     id="path20"
     inkscape:connector-curvature="0"
     style="fill:#1a1a1a" />
</svg>
